X:190
T:Morning Thrush, The
R:reel
C:James Ennis
Z:transcribed by Dave Marshall
M:C|
K:D
|: f2ef d2AF | dAAF Agfe | d2AF D~F3 | ABdf e2fe |
d2AF dAAd | BABc dADE | EDFA defa |1 afef dfag :|2 afef dABc |
|: dcde faaf | ~g3e fgfe | dcde faaf | gefd  eABc |
dcde faaf | gefd efdB | A2FA defa | afef dABc :|
|: dAAF BAFA | D3B A~F3 | dFFE ~F3A | ABdf e2fe |
dAAF dAAF | BABc dADE | EDFA defa |1 afef dABc :|2 afef d4 |
